src/static/src/img/registration/megaphone.svg

<svg height="210" viewBox="0 0 217 210" width="217" xmlns="http://www.w3.org/2000/svg"><g fill="none"><circle cx="105" cy="105" fill="#e8f0fe" r="105"/><path d="m140.735178 41.157523c-3.576541 0-6.936723 1.5382865-9.967952 4.3503976-.002208.0022039-.004416.0022039-.006624.0044077-14.069935 8.5509335-51.2792076 28.7029273-89.3494992 28.7029273-.0044155 0-.0066232.0022039-.0110387.0022039s-.0066232-.0022039-.0110387-.0022039h-11.0387067c-7.912545 0-14.3503187 6.4264232-14.3503187 14.3250175v22.0384879c0 7.898595 6.4377737 14.325018 14.3503187 14.325018h7.7270947v40.771204c0 7.898594 6.4377737 14.325017 14.3503187 14.325017 7.9125449 0 14.3503187-6.426423 14.3503187-14.325017v-38.049451c28.2899975 5.793919 53.0829332 19.367424 63.9869672 25.987786.004415.002204.008831.004408.013246.006611 3.029022 2.8055 6.384788 4.343786 9.959122 4.343786 14.473952 0 25.389025-25.108449 25.389025-58.4019939 0-33.2935444-10.917281-58.4041981-25.391233-58.4041981zm-96.0124632 39.6229983c30.8289001-.859501 60.0439412-13.456701 77.9288542-22.9927549-4.561194 10.4440396-7.305417 25.0775959-7.305417 41.7717509 0 16.6897477 2.744223 31.3233037 7.303209 41.7673437-17.88712-9.531647-47.1087849-22.128847-77.9266462-22.988348zm77.2466612 18.778996c0-4.6258787.249475-9.0049264.666738-13.1613853 6.735819.6148738 12.027775 6.2809692 12.027775 13.1613853 0 6.8804157-5.291956 12.5443077-12.027775 13.1613857-.417263-4.156459-.666738-8.535507-.666738-13.1613857zm-99.3483597 11.0192437v-22.0384879c0-4.2534283 3.4661539-7.713471 7.7270947-7.713471h7.7513798v37.4654299h-7.7513798c-4.2609408 0-7.7270947-3.460042-7.7270947-7.713471zm37.5316027 55.096222c0 4.253428-3.4661539 7.71347-7.7270947 7.71347-4.2609407 0-7.7270946-3.460042-7.7270946-7.71347v-40.716108c5.1970231.15427 10.3675533.676582 15.4541893 1.472171zm80.582559-14.325018c-6.799843 0-14.175907-12.506842-17.264537-32.061593 9.994445-1.031401 17.816472-9.485365 17.816472-19.7288547 0-10.2434894-7.822027-18.6974536-17.816472-19.7288548 3.08863-19.5547508 10.464694-32.061593 17.264537-32.061593 8.877328 0 18.765801 21.2693452 18.765801 51.7904478 0 30.5211027-9.888473 51.7904477-18.765801 51.7904477zm38.876117-17.732168-6.395827-1.71239c-1.176726-.317354-1.87658-1.52286-1.560873-2.699715s1.523342-1.875475 2.704483-1.558121l6.395827 1.71239c1.176726.317355 1.87658 1.52286 1.560873 2.699715-.264929.985121-1.156856 1.633052-2.13047 1.633052-.189866.002204-.381939-.022038-.574013-.074931zm17.631022 2.441865c-.264929.98512-1.156856 1.633052-2.13047 1.633052-.187658 0-.381939-.024243-.574013-.074931l-6.395826-1.712391c-1.176727-.317354-1.876581-1.522859-1.560874-2.699714.315708-1.176856 1.518927-1.873272 2.704484-1.558122l6.395826 1.712391c1.176726.317354 1.87658 1.525063 1.560873 2.699715zm-27.440017 26.302936c-.408432.707435-1.150233 1.101924-1.914111 1.101924-.375316 0-.755048-.094765-1.103871-.295316l-5.735712-3.307977c-1.0553-.608262-1.41737-1.959221-.805826-3.010457.607129-1.055644 1.956059-1.419279 3.015775-.806609l5.735712 3.307977c1.0553.610466 1.41737 1.959222.808033 3.010458zm13.381121 7.717878c-.408433.707436-1.150234 1.101925-1.914112 1.101925-.375316 0-.755048-.094766-1.103871-.295316l-5.733504-3.305773c-1.0553-.608263-1.41737-1.959222-.805826-3.010458.609337-1.055643 1.958267-1.417075 3.015775-.806608l5.735712 3.307977c1.053093.608262 1.415162 1.957017.805826 3.008253zm-9.769256-135.4683841c-.609336-1.0556436-.247267-2.4021952.808033-3.0104575l5.73792-3.3057732c1.055301-.6104662 2.404231-.2446273 3.015775.8066086.609336 1.0556436.247267 2.4021953-.808033 3.0104575l-5.73792 3.3057733c-.348823.2005503-.728555.2953158-1.101663.2953158-.763879 0-1.50568-.3966928-1.914112-1.1019245zm-13.385536 7.7112671c-.609336-1.0556436-.247267-2.4021952.808034-3.0104575l5.735712-3.3057732c1.057508-.6104662 2.40423-.249035 3.015774.8066086.609337 1.0556436.247267 2.4021953-.808033 3.0104575l-5.735712 3.3057733c-.348823.2005503-.728555.2953158-1.101663.2953158-.761671 0-1.503472-.394489-1.914112-1.1019245zm28.005199 20.9101178 6.395827-1.7101867c1.178934-.319558 2.388776.3812659 2.704483 1.5581212.315707 1.1746514-.381939 2.3845644-1.560873 2.6997148l-6.395827 1.7101867c-.189865.0506885-.384147.0749309-.571805.0749309-.975821 0-1.867749-.6479316-2.13047-1.633052-.317915-1.1768553.379731-2.3845645 1.558665-2.6997149zm-14.928747 3.9911703 6.398035-1.7101867c1.183349-.3217619 2.388776.3812658 2.704483 1.5581211.315707 1.1746515-.381939 2.3845645-1.560873 2.6997148l-6.398035 1.7101868c-.192073.0506885-.384147.0749308-.571805.0749308-.975821 0-1.867749-.6479315-2.13047-1.633052-.317915-1.1746514.379731-2.3845644 1.558665-2.6997148zm28.894919 32.3348702c0 1.2187287-.989068 2.2038487-2.207741 2.2038487h-6.623224c-1.218674 0-2.207742-.98512-2.207742-2.2038487 0-1.2187284.989068-2.2038489 2.207742-2.2038489h6.623224c1.218673 0 2.207741.9873243 2.207741 2.2038489zm-17.661931 2.2038487h-6.623224c-1.218673 0-2.207741-.98512-2.207741-2.2038487 0-1.2187284.989068-2.2038489 2.207741-2.2038489h6.623224c1.218674 0 2.207742.9851205 2.207742 2.2038489 0 1.2187287-.989068 2.2038487-2.207742 2.2038487zm-9.778086 12.599404c.161165-1.207709 1.276074-2.053987 2.477086-1.89531l1.095039.14325c1.207635.158677 2.059823 1.265009 1.898658 2.472719-.145711 1.108535-1.09504 1.915144-2.185664 1.915144-.097141 0-.194281-.006611-.291422-.019834l-1.09504-.143251c-1.207634-.158677-2.057614-1.265009-1.898657-2.472718zm12.261795 3.836901c-1.209842-.158677-2.059822-1.265009-1.898657-2.472719.158957-1.205505 1.278282-2.047375 2.477086-1.89531l1.159064.152066c1.209842.158677 2.059822 1.265009 1.898657 2.472718-.145711 1.108536-1.095039 1.915145-2.185664 1.915145-.09714 0-.194281-.006612-.291421-.019835zm13.999288-.379062c-.145711 1.108536-1.09504 1.915144-2.185664 1.915144-.09714 0-.194281-.006611-.291422-.019834l-1.095039-.14325c-1.207635-.158677-2.059823-1.26501-1.898658-2.472719s1.282698-2.049579 2.477086-1.89531l1.09504.14325c1.207634.158678 2.057615 1.26501 1.898657 2.472719zm-28.802193 27.26161c-.353239.848482-1.174519 1.359775-2.039953 1.359775-.280384 0-.56739-.052893-.843358-.167493l-1.019976-.420935c-1.125948-.465012-1.660222-1.756467-1.194388-2.88043.465833-1.123963 1.757362-1.657295 2.885518-1.192283l1.019976.420936c1.123741.465012 1.658014 1.756467 1.192181 2.88043zm9.714062 4.024228c-.353239.848482-1.174519 1.357571-2.039953 1.357571-.282591 0-.569598-.052893-.845565-.167493l-1.079586-.447381c-1.125948-.467216-1.658014-1.758671-1.19218-2.882634.465833-1.123963 1.75957-1.650683 2.885518-1.190079l1.079585.447382c1.125948.467216 1.660222 1.758671 1.192181 2.882634zm9.65666 3.99117c-.353238.848482-1.174518 1.359775-2.039953 1.359775-.280383 0-.567389-.052892-.843357-.167493l-1.019977-.420935c-1.125948-.465012-1.660221-1.756467-1.194388-2.88043.465834-1.123963 1.75957-1.657294 2.885518-1.192282l1.019977.420935c1.125948.467216 1.660221 1.758671 1.19218 2.88043zm-22.368835-100.233249c1.12374-.4672159 2.417477.0683194 2.885518 1.1922823.465833 1.1239629-.06844 2.4154183-1.194388 2.8804304l-1.019977.4209351c-.275967.1146002-.562974.1674925-.843357.1674925-.867642 0-1.688922-.5112929-2.039953-1.3597747-.465833-1.1239629.06844-2.4154183 1.194388-2.8804304zm12.603995-2.8209265c.465834 1.1261668-.070648 2.4132145-1.196596 2.8782266l-1.079585.4451775c-.275968.1146001-.560766.1674925-.84115.1674925-.867642 0-1.691129-.5112929-2.04216-1.3619786-.465834-1.1261668.070647-2.4132145 1.196595-2.8782266l1.079586-.4451775c1.128156-.4694198 2.417477.0683194 2.88331 1.1944861zm4.556778-1.8864946c-.465833-1.1239629.06844-2.4154183 1.194388-2.8804304l1.019977-.4209352c1.12374-.4672159 2.417477.0683194 2.885518 1.1922823s-.06844 2.4154183-1.194388 2.8804304l-1.019977.4209351c-.275967.1146002-.562974.1674925-.843357.1674925-.867642 0-1.688922-.5112929-2.042161-1.3597747zm-9.477833 38.5166662c-1.090624 0-2.037746-.8066087-2.185664-1.9151446-.158958-1.2077092.691023-2.3140413 1.898657-2.4727184l1.09504-.1432502c1.203219-.1564733 2.318128.6898047 2.477086 1.89531.158957 1.2055053-.691023 2.3140413-1.898658 2.4727184l-1.095039.1432502c-.099349.0132231-.196489.0198346-.291422.0198346zm8.179681-3.2793271c-.158957-1.2077091.691023-2.3140412 1.898658-2.4727184l1.159064-.1520655c1.203219-.1542695 2.318129.6898047 2.477086 1.89531.158957 1.2077091-.691023 2.3140413-1.898658 2.4727184l-1.159064.1520655c-.09714.0132231-.194281.0198347-.291422.0198347-1.090624.0022038-2.039953-.8066087-2.185664-1.9151447zm12.328028-3.8413085 1.09504-.1432502c1.205427-.1498617 2.318128.6898047 2.477086 1.89531.158957 1.2077092-.691024 2.3140413-1.898658 2.4727184l-1.09504.1432502c-.09714.0132231-.194281.0198347-.291422.0198347-1.090624 0-2.037745-.8066087-2.185664-1.9151447-.161165-1.2077092.688816-2.3140413 1.898658-2.4727184z" fill="#000" opacity=".699554" transform="translate(15 -2)"/></g></svg>

<?xml version="1.0" encoding="UTF-8"?>
<svg width="217px" height="210px" viewBox="0 0 217 210" version="1.1" xmlns="http://www.w3.org/2000/svg" xmlns:xlink="http://www.w3.org/1999/xlink">
    <!-- Generator: Sketch 51 (57462) - http://www.bohemiancoding.com/sketch -->
    <title>Group 3</title>
    <desc>Created with Sketch.</desc>
    <defs></defs>
    <g id="Survey-journey-MVP" stroke="none" stroke-width="1" fill="none" fill-rule="evenodd">
        <g id="Register" transform="translate(-189.000000, -367.000000)" fill-rule="nonzero">
            <g id="Group-3" transform="translate(189.000000, 365.000000)">
                <circle id="Oval-4" fill="#E8F0FE" cx="105" cy="107" r="105"></circle>
                <g id="noun_1178613_cc" transform="translate(15.000000, 0.000000)" fill="#000000" opacity="0.699553571">
                    <path d="M140.735178,41.157523 C137.158637,41.157523 133.798455,42.6958095 130.767226,45.5079206 C130.765018,45.5101245 130.76281,45.5101245 130.760602,45.5123283 C116.690667,54.0632618 79.4813944,74.2152556 41.4111028,74.2152556 C41.4066873,74.2152556 41.4044796,74.2174595 41.4000641,74.2174595 C41.3956486,74.2174595 41.3934409,74.2152556 41.3890254,74.2152556 L30.3503187,74.2152556 C22.4377737,74.2152556 16,80.6416788 16,88.5402731 L16,110.578761 C16,118.477356 22.4377737,124.903779 30.3503187,124.903779 L38.0774134,124.903779 L38.0774134,165.674983 C38.0774134,173.573577 44.5151871,180 52.4277321,180 C60.340277,180 66.7780508,173.573577 66.7780508,165.674983 L66.7780508,127.625532 C95.0680483,133.419451 119.860984,146.992956 130.765018,153.613318 C130.769433,153.615522 130.773849,153.617726 130.778264,153.619929 C133.807286,156.425429 137.163052,157.963715 140.737386,157.963715 C155.211338,157.963715 166.126411,132.855266 166.126411,99.5617211 C166.126411,66.2681767 155.20913,41.157523 140.735178,41.157523 Z M44.7227148,80.7805213 C75.5516149,79.9210203 104.766656,67.3238203 122.651569,57.7877664 C118.090375,68.231806 115.346152,82.8653623 115.346152,99.5595173 C115.346152,116.249265 118.090375,130.882821 122.649361,141.326861 C104.762241,131.795214 75.5405761,119.198014 44.7227148,118.338513 L44.7227148,80.7805213 Z M121.969376,99.5595173 C121.969376,94.9336386 122.218851,90.5545909 122.636114,86.398132 C129.371933,87.0130058 134.663889,92.6791012 134.663889,99.5595173 C134.663889,106.439933 129.371933,112.103825 122.636114,112.720903 C122.218851,108.564444 121.969376,104.185396 121.969376,99.5595173 Z M22.6210163,110.578761 L22.6210163,88.5402731 C22.6210163,84.2868448 26.0871702,80.8268021 30.348111,80.8268021 L38.0994908,80.8268021 L38.0994908,118.292232 L30.348111,118.292232 C26.0871702,118.292232 22.6210163,114.83219 22.6210163,110.578761 Z M60.152619,165.674983 C60.152619,169.928411 56.6864651,173.388453 52.4255243,173.388453 C48.1645836,173.388453 44.6984297,169.928411 44.6984297,165.674983 L44.6984297,124.958875 C49.8954528,125.113145 55.065983,125.635457 60.152619,126.431046 L60.152619,165.674983 Z M140.735178,151.349965 C133.935335,151.349965 126.559271,138.843123 123.470641,119.288372 C133.465086,118.256971 141.287113,109.803007 141.287113,99.5595173 C141.287113,89.3160279 133.465086,80.8620637 123.470641,79.8306625 C126.559271,60.2759117 133.935335,47.7690695 140.735178,47.7690695 C149.612506,47.7690695 159.500979,69.0384147 159.500979,99.5595173 C159.500979,130.08062 149.612506,151.349965 140.735178,151.349965 Z M179.611295,133.617797 L173.215468,131.905407 C172.038742,131.588053 171.338888,130.382547 171.654595,129.205692 C171.970302,128.028837 173.177937,127.330217 174.359078,127.647571 L180.754905,129.359961 C181.931631,129.677316 182.631485,130.882821 182.315778,132.059676 C182.050849,133.044797 181.158922,133.692728 180.185308,133.692728 C179.995442,133.694932 179.803369,133.67069 179.611295,133.617797 Z M197.242317,136.059662 C196.977388,137.044782 196.085461,137.692714 195.111847,137.692714 C194.924189,137.692714 194.729908,137.668471 194.537834,137.617783 L188.142008,135.905392 C186.965281,135.588038 186.265427,134.382533 186.581134,133.205678 C186.896842,132.028822 188.100061,131.332406 189.285618,131.647556 L195.681444,133.359947 C196.85817,133.677301 197.558024,134.88501 197.242317,136.059662 Z M169.8023,162.362598 C169.393868,163.070033 168.652067,163.464522 167.888189,163.464522 C167.512873,163.464522 167.133141,163.369757 166.784318,163.169206 L161.048606,159.861229 C159.993306,159.252967 159.631236,157.902008 160.24278,156.850772 C160.849909,155.795128 162.198839,155.431493 163.258555,156.044163 L168.994267,159.35214 C170.049567,159.962606 170.411637,161.311362 169.8023,162.362598 Z M183.183421,170.080476 C182.774988,170.787912 182.033187,171.182401 181.269309,171.182401 C180.893993,171.182401 180.514261,171.087635 180.165438,170.887085 L174.431934,167.581312 C173.376634,166.973049 173.014564,165.62209 173.626108,164.570854 C174.235445,163.515211 175.584375,163.153779 176.641883,163.764246 L182.377595,167.072223 C183.430688,167.680485 183.792757,169.02924 183.183421,170.080476 Z M173.414165,34.6120919 C172.804829,33.5564483 173.166898,32.2098967 174.222198,31.6016344 L179.960118,28.2958612 C181.015419,27.685395 182.364349,28.0512339 182.975893,29.1024698 C183.585229,30.1581134 183.22316,31.5046651 182.16786,32.1129273 L176.42994,35.4187006 C176.081117,35.6192509 175.701385,35.7140164 175.328277,35.7140164 C174.564398,35.7140164 173.822597,35.3173236 173.414165,34.6120919 Z M160.028629,42.323359 C159.419293,41.2677154 159.781362,39.9211638 160.836663,39.3129015 L166.572375,36.0071283 C167.629883,35.3966621 168.976605,35.7580933 169.588149,36.8137369 C170.197486,37.8693805 169.835416,39.2159322 168.780116,39.8241944 L163.044404,43.1299677 C162.695581,43.330518 162.315849,43.4252835 161.942741,43.4252835 C161.18107,43.4252835 160.439269,43.0307945 160.028629,42.323359 Z M188.033828,63.2334768 L194.429655,61.5232901 C195.608589,61.2037321 196.818431,61.904556 197.134138,63.0814113 C197.449845,64.2560627 196.752199,65.4659757 195.573265,65.7811261 L189.177438,67.4913128 C188.987573,67.5420013 188.793291,67.5662437 188.605633,67.5662437 C187.629812,67.5662437 186.737884,66.9183121 186.475163,65.9331917 C186.157248,64.7563364 186.854894,63.5486272 188.033828,63.2334768 Z M173.105081,67.2246471 L179.503116,65.5144604 C180.686465,65.1926985 181.891892,65.8957262 182.207599,67.0725815 C182.523306,68.247233 181.82566,69.457146 180.646726,69.7722963 L174.248691,71.4824831 C174.056618,71.5331716 173.864544,71.5574139 173.676886,71.5574139 C172.701065,71.5574139 171.809137,70.9094824 171.546416,69.9243619 C171.228501,68.7497105 171.926147,67.5397975 173.105081,67.2246471 Z M202,99.5595173 C202,100.778246 201.010932,101.763366 199.792259,101.763366 L193.169035,101.763366 C191.950361,101.763366 190.961293,100.778246 190.961293,99.5595173 C190.961293,98.3407889 191.950361,97.3556684 193.169035,97.3556684 L199.792259,97.3556684 C201.010932,97.3556684 202,98.3429927 202,99.5595173 Z M184.338069,101.763366 L177.714845,101.763366 C176.496172,101.763366 175.507104,100.778246 175.507104,99.5595173 C175.507104,98.3407889 176.496172,97.3556684 177.714845,97.3556684 L184.338069,97.3556684 C185.556743,97.3556684 186.545811,98.3407889 186.545811,99.5595173 C186.545811,100.778246 185.556743,101.763366 184.338069,101.763366 Z M174.559983,114.36277 C174.721148,113.155061 175.836057,112.308783 177.037069,112.46746 L178.132108,112.61071 C179.339743,112.769387 180.191931,113.875719 180.030766,115.083429 C179.885055,116.191964 178.935726,116.998573 177.845102,116.998573 C177.747961,116.998573 177.650821,116.991962 177.55368,116.978739 L176.45864,116.835488 C175.251006,116.676811 174.401026,115.570479 174.559983,114.36277 Z M186.821778,118.199671 C185.611936,118.040994 184.761956,116.934662 184.923121,115.726952 C185.082078,114.521447 186.201403,113.679577 187.400207,113.831642 L188.559271,113.983708 C189.769113,114.142385 190.619093,115.248717 190.457928,116.456426 C190.312217,117.564962 189.362889,118.371571 188.272264,118.371571 C188.175124,118.371571 188.077983,118.364959 187.980843,118.351736 L186.821778,118.199671 Z M200.821066,117.820609 C200.675355,118.929145 199.726026,119.735753 198.635402,119.735753 C198.538262,119.735753 198.441121,119.729142 198.34398,119.715919 L197.248941,119.572669 C196.041306,119.413992 195.189118,118.307659 195.350283,117.09995 C195.511448,115.892241 196.632981,115.050371 197.827369,115.20464 L198.922409,115.34789 C200.130043,115.506568 200.980024,116.6129 200.821066,117.820609 Z M172.018873,145.082219 C171.665634,145.930701 170.844354,146.441994 169.97892,146.441994 C169.698536,146.441994 169.41153,146.389101 169.135562,146.274501 L168.115586,145.853566 C166.989638,145.388554 166.455364,144.097099 166.921198,142.973136 C167.387031,141.849173 168.67856,141.315841 169.806716,141.780853 L170.826692,142.201789 C171.950433,142.666801 172.484706,143.958256 172.018873,145.082219 Z M181.732935,149.106447 C181.379696,149.954929 180.558416,150.464018 179.692982,150.464018 C179.410391,150.464018 179.123384,150.411125 178.847417,150.296525 L177.767831,149.849144 C176.641883,149.381928 176.109817,148.090473 176.575651,146.96651 C177.041484,145.842547 178.335221,145.315827 179.461169,145.776431 L180.540754,146.223813 C181.666702,146.691029 182.200976,147.982484 181.732935,149.106447 Z M191.389595,153.097617 C191.036357,153.946099 190.215077,154.457392 189.349642,154.457392 C189.069259,154.457392 188.782253,154.4045 188.506285,154.289899 L187.486308,153.868964 C186.36036,153.403952 185.826087,152.112497 186.29192,150.988534 C186.757754,149.864571 188.05149,149.33124 189.177438,149.796252 L190.197415,150.217187 C191.323363,150.684403 191.857636,151.975858 191.389595,153.097617 Z M169.02076,52.864368 C170.1445,52.3971521 171.438237,52.9326874 171.906278,54.0566503 C172.372111,55.1806132 171.837838,56.4720686 170.71189,56.9370807 L169.691913,57.3580158 C169.415946,57.472616 169.128939,57.5255083 168.848556,57.5255083 C167.980914,57.5255083 167.159634,57.0142154 166.808603,56.1657336 C166.34277,55.0417707 166.877043,53.7503153 168.002991,53.2853032 L169.02076,52.864368 Z M181.624755,50.0434415 C182.090589,51.1696083 181.554107,52.456656 180.428159,52.9216681 L179.348574,53.3668456 C179.072606,53.4814457 178.787808,53.5343381 178.507424,53.5343381 C177.639782,53.5343381 176.816295,53.0230452 176.465264,52.1723595 C175.99943,51.0461927 176.535911,49.759145 177.661859,49.2941329 L178.741445,48.8489554 C179.869601,48.3795356 181.158922,48.9172748 181.624755,50.0434415 Z M186.181533,48.1569469 C185.7157,47.032984 186.249973,45.7415286 187.375921,45.2765165 L188.395898,44.8555813 C189.519638,44.3883654 190.813375,44.9239007 191.281416,46.0478636 C191.749457,47.1718265 191.212976,48.4632819 190.087028,48.928294 L189.067051,49.3492291 C188.791084,49.4638293 188.504077,49.5167216 188.223694,49.5167216 C187.356052,49.5167216 186.534772,49.0054287 186.181533,48.1569469 Z M176.7037,86.6736131 C175.613076,86.6736131 174.665954,85.8670044 174.518036,84.7584685 C174.359078,83.5507593 175.209059,82.4444272 176.416693,82.2857501 L177.511733,82.1424999 C178.714952,81.9860266 179.829861,82.8323046 179.988819,84.0378099 C180.147776,85.2433152 179.297796,86.3518512 178.090161,86.5105283 L176.995122,86.6537785 C176.895773,86.6670016 176.798633,86.6736131 176.7037,86.6736131 Z M184.883381,83.394286 C184.724424,82.1865769 185.574404,81.0802448 186.782039,80.9215676 L187.941103,80.7695021 C189.144322,80.6152326 190.259232,81.4593068 190.418189,82.6648121 C190.577146,83.8725212 189.727166,84.9788534 188.519531,85.1375305 L187.360467,85.289596 C187.263327,85.3028191 187.166186,85.3094307 187.069045,85.3094307 C185.978421,85.3116345 185.029092,84.502822 184.883381,83.394286 Z M197.211409,79.5529775 L198.306449,79.4097273 C199.511876,79.2598656 200.624577,80.099532 200.783535,81.3050373 C200.942492,82.5127465 200.092511,83.6190786 198.884877,83.7777557 L197.789837,83.9210059 C197.692697,83.934229 197.595556,83.9408406 197.498415,83.9408406 C196.407791,83.9408406 195.46067,83.1342319 195.312751,82.0256959 C195.151586,80.8179867 196.001567,79.7116546 197.211409,79.5529775 Z" id="Shape"></path>
                </g>
            </g>
        </g>
    </g>
</svg>
